resources/haticons/SVG/view_headline.svg

<!-- Generated by IcoMoon.io -->
<svg version="1.1" xmlns="http://www.w3.org/2000/svg" width="24" height="24" viewBox="0 0 24 24">
<title>view_headline</title>
<path d="M3.984 5.016h16.031v1.969h-16.031v-1.969zM3.984 11.016v-2.016h16.031v2.016h-16.031zM3.984 18.984v-1.969h16.031v1.969h-16.031zM3.984 15v-2.016h16.031v2.016h-16.031z"></path>
</svg>

<svg xmlns="http://www.w3.org/2000/svg" width="24" height="24"><path d="M3.984 5.016h16.031v1.969H3.984V5.016zm0 6V9h16.031v2.016H3.984zm0 7.968v-1.969h16.031v1.969H3.984zm0-3.984v-2.016h16.031V15H3.984z"/></svg>
